X:1
T:Miss Thompson's
L:1/8
M:C|
I:linebreak $
K:D
V:1 treble
V:1
 A2 | "D"d2 df "G"edcB | "D"A2 AB AGFE | DFAF "G"DGBG | "D"DFAF "A"E2 A2 |$
 "D"d2 df "G"edcB | "D"A2 AB AGFE | DFAd "A"fedc | "D"d2 dc d2 :|$
 cd | "A"e2 ec Aceg | "D"f2 fd Adfa | "G"g2 g2 "D"e2 f2 | "E"edcB "A"A2 GA |$
 "G"B2 BG DGBG | "D"A2 AF DFAF | Acde "A"fedc | "D"d2 dc d2 :|
